imgs/01-02-btn.svg

<?xml version="1.0" encoding="UTF-8" standalone="no"?>
<svg width="640px" height="80px" viewBox="0 0 640 80" version="1.1" xmlns="http://www.w3.org/2000/svg" xmlns:xlink="http://www.w3.org/1999/xlink" xmlns:sketch="http://www.bohemiancoding.com/sketch/ns">
    <!-- Generator: Sketch 3.3 (11970) - http://www.bohemiancoding.com/sketch -->
    <title>Rectangle 7</title>
    <desc>Created with Sketch.</desc>
    <defs>
        <path d="M4.42,13.8504369 C3.872,15.1398709 3.231,16.4532572 2.5,17.7915938 L0.992,17.1967776 C1.083,17.0480735 1.197,16.8245184 1.335,16.5271102 C2.065,15.1887736 2.591,14.1228947 2.912,13.3294737 L4.42,13.8504369 L4.42,13.8504369 Z M2.98,12.2895432 L2.98,5.81941907 L8.124,5.81941907 L8.124,0.0938133069 L9.77,0.0938133069 L9.77,2.10081927 L17.244,2.10081927 L17.244,3.66271102 L9.77,3.66271102 L9.77,5.81941907 L15.735,5.81941907 L15.735,12.2895432 L2.98,12.2895432 L2.98,12.2895432 Z M4.626,10.7266534 L14.089,10.7266534 L14.089,7.38131082 L4.626,7.38131082 L4.626,10.7266534 Z M6.752,17.5680387 C6.615,17.0231231 6.386,16.1558491 6.066,14.9662165 C5.929,14.4712016 5.837,14.0989424 5.792,13.8504369 L7.301,13.6268818 C7.346,13.7765839 7.414,13.999141 7.506,14.2965492 C7.918,15.6857845 8.192,16.6758143 8.329,17.2716286 L6.752,17.5680387 L6.752,17.5680387 Z M11.072,17.4193347 C10.889,16.6259136 10.478,15.4113307 9.838,13.7765839 L11.347,13.4791758 C11.392,13.5779791 11.438,13.7007349 11.484,13.8504369 C12.032,15.1887736 12.42,16.2307001 12.649,16.9742205 L11.072,17.4193347 L11.072,17.4193347 Z M15.873,17.5680387 C15.369,16.4273088 14.775,15.1638232 14.089,13.7765839 L15.598,13.2556207 C15.69,13.4532274 15.873,13.8254866 16.147,14.3704022 C16.832,15.6598361 17.267,16.5271102 17.45,16.9742205 L15.873,17.5680387 L15.873,17.5680387 Z M19.501,4.77749255 L19.501,3.14174777 L25.742,3.14174777 L25.742,0.167666336 L27.456,0.167666336 L27.456,3.14174777 L33.765,3.14174777 L33.765,4.77749255 L27.456,4.77749255 L27.456,7.90127607 L34.862,7.90127607 L34.862,9.53801887 L27.456,9.53801887 L27.456,15.4113307 L31.776,15.4113307 L31.776,11.1727656 L33.422,11.1727656 L33.422,17.8654469 L31.776,17.8654469 L31.776,16.8993694 L19.775,16.8993694 L19.775,11.2486147 L21.421,11.2486147 L21.421,15.4113307 L25.742,15.4113307 L25.742,9.53801887 L18.335,9.53801887 L18.335,7.90127607 L25.742,7.90127607 L25.742,4.77749255 L19.501,4.77749255 L19.501,4.77749255 Z M39.166,7.90127607 C39.257,12.2136941 38.525,15.5610328 36.972,17.9412959 C36.742,17.6428898 36.331,17.1708292 35.737,16.5271102 C36.468,15.3873784 36.948,14.1987438 37.178,12.9572145 C37.405,11.8184806 37.521,10.0579841 37.521,7.67772095 L37.521,2.10081927 L43.897,2.10081927 L43.35,0.315372393 L45.201,0.0938133069 C45.201,0.143714002 45.224,0.241519364 45.27,0.39122145 C45.451,1.13474181 45.612,1.70460775 45.749,2.10081927 L51.51,2.10081927 L51.51,7.90127607 L39.166,7.90127607 L39.166,7.90127607 Z M39.166,6.34038232 L49.864,6.34038232 L49.864,3.66271102 L39.166,3.66271102 L39.166,6.34038232 Z M40.264,17.9412959 L40.264,10.3553923 L51.304,10.3553923 L51.304,17.9412959 L49.727,17.9412959 L49.727,16.7506653 L41.841,16.7506653 L41.841,17.9412959 L40.264,17.9412959 L40.264,17.9412959 Z M41.841,15.4113307 L49.727,15.4113307 L49.727,11.842433 L41.841,11.842433 L41.841,15.4113307 Z M52.457,9.76057597 L52.457,8.34738828 L53.485,8.34738828 L53.485,2.02596822 L55.199,2.02596822 C55.244,1.77846077 55.314,1.4571003 55.405,1.05889275 C55.45,0.61377855 55.496,0.29142006 55.543,0.0938133069 L57.051,0.167666336 L56.571,2.02596822 L58.972,2.02596822 L58.972,15.7835899 C59.017,17.0231231 58.468,17.6428898 57.325,17.6428898 C57.051,17.6917925 56.525,17.7177408 55.748,17.7177408 C55.748,17.6169414 55.702,17.443287 55.611,17.1967776 C55.565,16.7506653 55.519,16.4023585 55.474,16.1558491 L55.816,16.1558491 C56.228,16.2037537 56.548,16.2037537 56.776,16.1558491 C57.416,16.2037537 57.713,15.9562463 57.668,15.4113307 L57.668,9.76057597 L54.788,9.76057597 C54.879,13.3294737 54.468,16.0560477 53.554,17.9412959 C53.462,17.8404965 53.302,17.7177408 53.074,17.5680387 C52.753,17.2716286 52.525,17.0480735 52.388,16.8993694 C53.165,15.3135253 53.53,12.9332622 53.485,9.76057597 L52.457,9.76057597 L52.457,9.76057597 Z M54.788,8.34738828 L57.668,8.34738828 L57.668,3.43915591 L54.788,3.43915591 L54.788,8.34738828 Z M56.091,7.38131082 C55.861,6.68669315 55.565,5.84436941 55.199,4.85234359 L56.228,4.33237835 C56.319,4.58088381 56.434,4.90224429 56.571,5.29945382 C56.846,5.99307349 57.051,6.51403674 57.189,6.86034757 L56.091,7.38131082 L56.091,7.38131082 Z M56.228,14.0739921 C55.908,13.1318669 55.565,12.2136941 55.199,11.3224677 L56.228,10.8015045 C56.319,11.0500099 56.456,11.4212711 56.64,11.916286 C56.959,12.562001 57.189,13.1069166 57.325,13.5530288 L56.228,14.0739921 L56.228,14.0739921 Z M62.469,9.76057597 C62.605,13.4791758 61.852,16.2037537 60.205,17.9412959 C60.068,17.7915938 59.862,17.5929891 59.588,17.3454816 C59.315,17.0969762 59.108,16.8993694 58.972,16.7506653 C59.794,15.8584409 60.343,14.9662165 60.617,14.0739921 C60.846,13.1807696 60.96,11.7446276 60.96,9.76057597 L60.96,6.9342006 L66.309,6.9342006 L66.309,15.2636246 C66.309,15.6598361 66.515,15.8584409 66.926,15.8584409 L67.132,15.8584409 C67.497,15.9073436 67.703,15.6598361 67.749,15.1149206 C67.886,14.2725968 67.954,13.2316683 67.954,11.9921351 C68.137,12.0909384 68.389,12.1897418 68.709,12.2895432 C68.891,12.3384459 69.028,12.3883466 69.12,12.4372493 C69.074,13.8254866 68.983,14.9163158 68.846,15.7097368 C68.709,16.8494687 68.137,17.4193347 67.132,17.4193347 L66.446,17.4193347 C65.349,17.4692354 64.822,16.8734211 64.869,15.6348858 L64.869,8.49609235 L62.469,8.49609235 L62.469,9.76057597 L62.469,9.76057597 Z M59.794,4.55593347 L59.794,2.99304369 L63.36,2.99304369 C63.223,2.59783019 62.993,1.97706554 62.674,1.13474181 C62.582,0.837333664 62.514,0.639726912 62.469,0.538927507 L64.114,0.167666336 L65.074,2.99304369 L68.435,2.99304369 L68.435,4.55593347 L59.794,4.55593347 L59.794,4.55593347 Z" id="path-1"></path>
    </defs>
    <g id="Welcome" stroke="none" stroke-width="1" fill="none" fill-rule="evenodd" sketch:type="MSPage">
        <g id="01-02" sketch:type="MSArtboardGroup" transform="translate(0.000000, -509.000000)">
            <g id="01-02-btn" sketch:type="MSLayerGroup" transform="translate(0.000000, 509.000000)">
                <path d="M318.289,71.4798262 L252.336,8.26961768 L384.239,8.26961768 L318.289,71.4798262" id="blue-triangle" fill="#1185C7" sketch:type="MSShapeGroup"></path>
                <path d="M318.289,71.4798262 L252.336,8.26961768 L384.239,8.26961768 L318.289,71.4798262 L318.289,71.4798262 Z M318.289,70.7852085 L382.998,8.76762661 L253.579,8.76762661 L318.289,70.7852085 L318.289,70.7852085 Z" id="border" fill="#00B7EE" sketch:type="MSShapeGroup"></path>
                <g id="点击启航" transform="translate(284.000000, 15.953327)">
                    <mask id="mask-2" sketch:name="Clip 16" fill="white">
                        <use xlink:href="#path-1"></use>
                    </mask>
                    <g id="Clip-16"></g>
                    <path d="M0.992,0.0938133069 L69.12,0.0938133069 L69.12,17.9412959 L0.992,17.9412959 L0.992,0.0938133069 Z" id="Fill-15" fill="#FFFFFF" sketch:type="MSShapeGroup" mask="url(#mask-2)"></path>
                </g>
                <path d="M318.408,52.8289424 L310.058,44.3757646 L310.058,42.1172592 L318.408,50.572433 L326.758,42.1172592 L326.758,44.3757646 L318.408,52.8289424 L318.408,52.8289424 Z M318.406,61.1573684 L304.091,47.0684062 L304.091,43.3058937 L318.406,57.395854 L332.723,43.3058937 L332.723,47.0684062 L318.406,61.1573684 L318.406,61.1573684 Z" id="Fill-19" fill="#CFE7F4" sketch:type="MSShapeGroup"></path>
                <rect id="Rectangle-7" sketch:type="MSShapeGroup" x="0" y="0" width="640" height="80"></rect>
            </g>
        </g>
    </g>
</svg>

<svg width="640" height="80" viewBox="0 0 640 80" xmlns="http://www.w3.org/2000/svg" xmlns:xlink="http://www.w3.org/1999/xlink" xmlns:sketch="http://www.bohemiancoding.com/sketch/ns"><title>Rectangle 7</title><desc>Created with Sketch.</desc><defs><path d="M4.42 13.85c-.548 1.289-1.189 2.603-1.92 3.941l-1.508-.595c.091-.149.205-.372.343-.67.73-1.338 1.256-2.404 1.577-3.198l1.508.521zm-1.44-1.561v-6.47h5.144v-5.726h1.646v2.007h7.474v1.562h-7.474v2.157h5.965v6.47h-12.755zm1.646-1.563h9.463v-3.345h-9.463v3.345zm2.126 6.841c-.137-.545-.366-1.412-.686-2.602-.137-.495-.229-.867-.274-1.116l1.509-.224.205.67c.412 1.389.686 2.379.823 2.975l-1.577.296zm4.32-.149c-.183-.793-.594-2.008-1.234-3.643l1.509-.297.137.371c.548 1.338.936 2.38 1.165 3.124l-1.577.445zm4.801.149c-.504-1.141-1.098-2.404-1.784-3.791l1.509-.521c.092.198.275.57.549 1.115.685 1.289 1.12 2.157 1.303 2.604l-1.577.594zm3.628-12.791v-1.636h6.241v-2.974h1.714v2.974h6.309v1.636h-6.309v3.124h7.406v1.637h-7.406v5.873h4.32v-4.239h1.646v6.693h-1.646v-.966h-12.001v-5.651h1.646v4.163h4.321v-5.873h-7.407v-1.637h7.407v-3.124h-6.241zm19.665 3.124c.091 4.312-.641 7.66-2.194 10.04-.23-.298-.641-.77-1.235-1.414.731-1.14 1.211-2.328 1.441-3.57.227-1.139.343-2.899.343-5.279v-5.577h6.376l-.547-1.785 1.851-.222.069.297c.181.744.342 1.313.479 1.71h5.761v5.8h-12.344zm0-1.561h10.698v-2.678h-10.698v2.678zm1.098 11.601v-7.586h11.04v7.586h-1.577v-1.191h-7.886v1.191h-1.577zm1.577-2.53h7.886v-3.569h-7.886v3.569zm10.616-5.651v-1.413h1.028v-6.321h1.714c.045-.248.115-.569.206-.967.045-.445.091-.767.138-.965l1.508.074-.48 1.858h2.401v13.758c.045 1.24-.504 1.859-1.647 1.859-.274.049-.8.075-1.577.075 0-.101-.046-.274-.137-.521-.046-.446-.092-.794-.137-1.041h.342c.412.048.732.048.96 0 .64.048.937-.2.892-.745v-5.651h-2.88c.091 3.569-.32 6.295-1.234 8.181-.092-.101-.252-.224-.48-.373-.321-.296-.549-.52-.686-.669.777-1.586 1.142-3.966 1.097-7.139h-1.028zm2.331-1.413h2.88v-4.908h-2.88v4.908zm1.303-.966c-.23-.695-.526-1.537-.892-2.529l1.029-.52.343.967.618 1.561-1.098.521zm.137 6.693c-.32-.942-.663-1.86-1.029-2.752l1.029-.521.412 1.115c.319.646.549 1.191.685 1.637l-1.097.521zm6.241-4.313c.136 3.719-.617 6.443-2.264 8.181-.137-.15-.343-.348-.617-.596-.273-.249-.48-.446-.616-.595.822-.892 1.371-1.784 1.645-2.677.229-.893.343-2.329.343-4.313v-2.826h5.349v8.329c0 .396.206.595.617.595h.206c.365.049.571-.199.617-.744.137-.842.205-1.883.205-3.123.183.099.435.198.755.297.182.049.319.099.411.148-.046 1.388-.137 2.479-.274 3.272-.137 1.14-.709 1.71-1.714 1.71h-.686c-1.097.05-1.624-.546-1.577-1.784v-7.139h-2.4v1.264zm-2.675-5.205v-1.563h3.566c-.137-.395-.367-1.016-.686-1.858-.092-.297-.16-.495-.205-.596l1.645-.371.96 2.825h3.361v1.563h-8.641z" id="a"/></defs><g sketch:type="MSLayerGroup" fill="none"><path d="M318.289 71.48l-65.953-63.21h131.903l-65.95 63.21" fill="#1185C7" sketch:type="MSShapeGroup"/><path d="M318.289 71.48l-65.953-63.21h131.903l-65.95 63.21zm0-.695l64.709-62.018h-129.419l64.71 62.018z" fill="#00B7EE" sketch:type="MSShapeGroup"/><g transform="translate(284 15.953)"><mask id="b" sketch:name="Clip 16"><use xlink:href="#a"/></mask><path d="M.992.094h68.128v17.847h-68.128v-17.847z" fill="#fff" sketch:type="MSShapeGroup" mask="url(#b)"/></g><path d="M318.408 52.829l-8.35-8.453v-2.259l8.35 8.455 8.35-8.455v2.259l-8.35 8.453zm-.002 8.328l-14.315-14.089v-3.763l14.315 14.09 14.317-14.09v3.763l-14.317 14.089z" fill="#CFE7F4" sketch:type="MSShapeGroup"/><path sketch:type="MSShapeGroup" d="M0 0h640v80h-640z"/></g></svg>
